images_sukapura_svg/cmd/lc_listbox.svg

<svg height="24" viewBox="0 0 24 24" width="24" xmlns="http://www.w3.org/2000/svg">/&amp;amp;gt;<rect fill="#98989d" height="20" rx="1.5" width="20" x="2" y="2"/><path d="m3 3v18h18v-18z" fill="#fff" stroke-width="1.309307"/><g fill="#69696e"><rect height="1" ry=".380151" width="14" x="5" y="9"/><rect height="1" ry=".452061" width="11" x="5" y="13"/><rect height="1" ry=".404121" width="11" x="5" y="5"/><rect height="1" ry=".380151" width="14" x="5" y="17"/></g><g fill="#bababa" transform="translate(1 2)"><path d="m2 5h18v.5h-18z"/><path d="m2 9h18v.5h-18z"/><path d="m2 13h18v.5h-18z"/><path d="m2 17h18v.5h-18z"/></g></svg>

<?xml version="1.0" encoding="UTF-8" standalone="no"?>
<svg
   xmlns:dc="http://purl.org/dc/elements/1.1/"
   xmlns:cc="http://creativecommons.org/ns#"
   xmlns:rdf="http://www.w3.org/1999/02/22-rdf-syntax-ns#"
   xmlns:svg="http://www.w3.org/2000/svg"
   xmlns="http://www.w3.org/2000/svg"
   xmlns:sodipodi="http://sodipodi.sourceforge.net/DTD/sodipodi-0.dtd"
   xmlns:inkscape="http://www.inkscape.org/namespaces/inkscape"
   viewBox="0 0 24 24"
   version="1.1"
   id="svg20"
   sodipodi:docname="lc_listbox.svg"
   width="24"
   height="24"
   inkscape:export-filename="/home/rizmut/Dokumen/Rizmut/Github/libreoffice-style-sukapura/images_sukapura/cmd/lc_listbox.png"
   inkscape:export-xdpi="96"
   inkscape:export-ydpi="96"
   inkscape:version="0.92.3 (unknown)"><metadata
   id="metadata26">
  <rdf:RDF>
    <cc:Work
       rdf:about="">
      <dc:format>image/svg+xml</dc:format>
      <dc:type
         rdf:resource="http://purl.org/dc/dcmitype/StillImage" />
      <dc:title></dc:title>
    </cc:Work>
  </rdf:RDF>
</metadata>
<defs
   id="defs24" />
<sodipodi:namedview
   pagecolor="#ffffff"
   bordercolor="#666666"
   borderopacity="1"
   objecttolerance="10"
   gridtolerance="10"
   guidetolerance="10"
   inkscape:pageopacity="0"
   inkscape:pageshadow="2"
   inkscape:window-width="1366"
   inkscape:window-height="706"
   id="namedview22"
   showgrid="true"
   inkscape:zoom="14.75"
   inkscape:cx="8.3630982"
   inkscape:cy="9.3094111"
   inkscape:window-x="-1"
   inkscape:window-y="-1"
   inkscape:window-maximized="0"
   inkscape:current-layer="svg20">
  <inkscape:grid
     type="xygrid"
     id="grid833" />
</sodipodi:namedview>
/&amp;gt;<rect
   height="20"
   rx="1.5"
   width="20"
   x="2"
   y="2"
   id="rect2"
   style="fill:#98989d" />
<path
   d="M 3,3 V 21 H 21 V 3 Z"
   id="path4"
   inkscape:connector-curvature="0"
   style="fill:#ffffff;stroke-width:1.30930698"
   sodipodi:nodetypes="ccccc" />
<g
   id="g12"
   style="fill:#69696e"
   transform="translate(1,2)">
  <rect
     height="1"
     ry="0.38015139"
     width="14"
     x="4"
     y="7"
     id="rect6" />
  <rect
     height="1"
     ry="0.45206055"
     width="11"
     x="4"
     y="11"
     id="rect8" />
  <rect
     height="1"
     ry="0.4041211"
     width="11"
     x="4"
     y="3"
     id="rect10" />
  <rect
     id="rect839"
     y="15"
     x="4"
     width="14"
     ry="0.38015139"
     height="1" />
</g>
<g
   id="g18"
   style="fill:#bababa"
   transform="translate(1,2)">
  <path
     d="M 2,5 H 20 V 5.5 H 2 Z"
     id="path14"
     inkscape:connector-curvature="0"
     sodipodi:nodetypes="ccccc" />
  <path
     d="M 2,9 H 20 V 9.5 H 2 Z"
     id="path16"
     inkscape:connector-curvature="0"
     sodipodi:nodetypes="ccccc" />
  <path
     sodipodi:nodetypes="ccccc"
     inkscape:connector-curvature="0"
     id="path835"
     d="m 2,13 h 18 v 0.5 H 2 Z" />
  <path
     sodipodi:nodetypes="ccccc"
     inkscape:connector-curvature="0"
     id="path837"
     d="m 2,17 h 18 v 0.5 H 2 Z" />
</g>
</svg>
